src/assets/mh-icons/Dual_Blades_Rank_01.svg

<?xml version="1.0" encoding="UTF-8" standalone="no"?>
<svg
   width="100%"
   height="100%"
   viewBox="0 0 64 64"
   version="1.1"
   xml:space="preserve"
   style="fill-rule:evenodd;clip-rule:evenodd;stroke-linejoin:round;stroke-miterlimit:2;"
   id="svg4930"
   sodipodi:docname="Dual_Blades_Rank_01.svg"
   inkscape:version="1.2.2 (732a01da63, 2022-12-09)"
   xmlns:inkscape="http://www.inkscape.org/namespaces/inkscape"
   xmlns:sodipodi="http://sodipodi.sourceforge.net/DTD/sodipodi-0.dtd"
   xmlns="http://www.w3.org/2000/svg"
   xmlns:svg="http://www.w3.org/2000/svg"><defs
   id="defs4934">
        
    
            
        
                
                
                
            
                    
                
                    
                
                    
                </defs><sodipodi:namedview
   id="namedview4932"
   pagecolor="#505050"
   bordercolor="#eeeeee"
   borderopacity="1"
   inkscape:showpageshadow="0"
   inkscape:pageopacity="0"
   inkscape:pagecheckerboard="0"
   inkscape:deskcolor="#505050"
   showgrid="false"
   inkscape:zoom="16.046875"
   inkscape:cx="32.062317"
   inkscape:cy="31.968841"
   inkscape:window-width="3440"
   inkscape:window-height="1377"
   inkscape:window-x="-8"
   inkscape:window-y="-8"
   inkscape:window-maximized="1"
   inkscape:current-layer="svg4930" />
    <path
   id="background"
   style="fill-opacity:0.75;fill:none;stroke:#000000;stroke-opacity:1;stroke-width:4;stroke-dasharray:none"
   d="M 25 6 C 25 6 10 9.00001 10 19 C 10 28.99999 16 38 16 38 L 16 41.294922 C 13.216053 42.831891 10.470703 44.847656 10.470703 44.847656 C 9.1247045 45.483656 8.7402821 47.001376 9.6132812 48.234375 C 10.48528 49.468374 12.286814 49.954359 13.632812 49.318359 C 13.632812 49.318359 14.991388 48.39514 17.210938 47.039062 L 20.84375 50.152344 C 21.098933 50.998039 21.496532 51.914343 21.738281 52.603516 C 21.908281 53.086515 22.048156 53.760266 22.160156 54.447266 C 22.055156 54.779265 22 55.134 22 55.5 C 22 56.158999 22.183 56.775735 22.5 57.302734 C 23.112999 58.318733 24.227001 59 25.5 59 C 27.431998 59 29 57.431998 29 55.5 C 29 54.841001 28.817 54.224265 28.5 53.697266 C 28.008 52.880266 27.191515 52.280172 26.228516 52.076172 C 25.660516 51.645172 25.100031 51.195359 24.707031 50.818359 C 24.184362 50.317673 23.590326 49.583685 23 48.972656 L 23 43.841797 C 26.303869 42.395879 28.806641 42.144531 28.806641 42.144531 C 30.152639 41.508532 30.537062 39.991811 29.664062 38.757812 C 28.791063 37.524814 26.99053 37.037829 25.644531 37.673828 C 25.644531 37.673828 25.370987 37.751941 25.117188 37.824219 L 23 35 C 23 35 17 24.999993 17 18 C 17 11.000007 25 6 25 6 z M 40 6 C 40 6 48 11.000007 48 18 C 48 24.999993 42 35 42 35 L 39.882812 37.824219 C 39.629013 37.751941 39.355469 37.673828 39.355469 37.673828 C 38.00947 37.037829 36.208937 37.524814 35.335938 38.757812 C 34.462938 39.991811 34.847361 41.508532 36.193359 42.144531 C 36.193359 42.144531 38.696131 42.395879 42 43.841797 L 42 48.972656 C 41.409674 49.583685 40.815638 50.317673 40.292969 50.818359 C 39.899969 51.195359 39.339484 51.645172 38.771484 52.076172 C 37.808485 52.280172 36.992 52.880266 36.5 53.697266 C 36.183 54.224265 36 54.841001 36 55.5 C 36 57.431998 37.568002 59 39.5 59 C 40.772999 59 41.887001 58.318733 42.5 57.302734 C 42.817 56.775735 43 56.158999 43 55.5 C 43 55.134 42.944844 54.779265 42.839844 54.447266 C 42.951844 53.760266 43.091719 53.086515 43.261719 52.603516 C 43.503468 51.914343 43.901067 50.998039 44.15625 50.152344 L 47.789062 47.039062 C 50.008612 48.39514 51.367188 49.318359 51.367188 49.318359 C 52.713186 49.954359 54.51472 49.468374 55.386719 48.234375 C 56.259718 47.001376 55.875296 45.483656 54.529297 44.847656 C 54.529297 44.847656 51.783947 42.831891 49 41.294922 L 49 38 C 49 38 55 28.99999 55 19 C 55 9.00001 40 6 40 6 z " />
<g
   transform="matrix(1,0,0,1,0,-192)"
   id="g5432">
        <g
   transform="matrix(1,0,0,1,0,-544)"
   id="g5430">
            <g
   id="g5428"
   transform="matrix(1,0,0,1,-192,-224)">
                <g
   id="g5418"
   transform="matrix(1,0,0,1,0,544)">
                    <path
   d="m 241,454 v 8 l -7,6 v -13 h -3 l 3,-4 z m -33,0 v 8 l 7,6 v -13 h 3 l -3,-4 z"
   style="display:inline;fill:#1f1f1f;fill-opacity:1"
   id="base"
   inkscape:label="base" />
                </g>
                <g
   id="g5422"
   transform="matrix(1,0,0,1,0,544)">
                    <path
   d="M234.839,470.448C234.951,469.761 235.091,469.087 235.261,468.604C235.777,467.133 237.028,464.613 236.007,464C234.985,463.386 233.457,465.703 232.292,466.819C231.899,467.196 231.34,467.645 230.772,468.076C229.809,468.28 228.992,468.88 228.5,469.697L228.5,469.697L228.5,469.697C228.183,470.224 228,470.841 228,471.5C228,473.432 229.568,475 231.5,475C232.773,475 233.887,474.319 234.5,473.303L234.5,473.303L234.5,473.303C234.817,472.776 235,472.159 235,471.5C235,471.134 234.944,470.78 234.839,470.448ZM214.161,470.448C214.049,469.761 213.909,469.087 213.739,468.604C213.223,467.133 211.972,464.613 212.993,464C214.015,463.386 215.543,465.703 216.708,466.819C217.101,467.196 217.66,467.645 218.228,468.076C219.191,468.28 220.008,468.88 220.5,469.697L220.5,469.697L220.5,469.697C220.817,470.224 221,470.841 221,471.5C221,473.432 219.432,475 217.5,475C216.227,475 215.113,474.319 214.5,473.303L214.5,473.303L214.5,473.303C214.183,472.776 214,472.159 214,471.5C214,471.134 214.056,470.78 214.161,470.448Z"
   style="fill:rgb(61,61,61);"
   id="path5420" />
                </g>
                <g
   id="g5426"
   transform="matrix(1,0,0,1,0,544)">
                    <path
   d="M227.336,454.757C228.209,453.524 230.009,453.038 231.355,453.674C231.355,453.674 235.648,454.843 238.942,456.261C242.236,457.679 246.529,460.848 246.529,460.848C247.875,461.484 248.259,463.002 247.386,464.235C246.514,465.469 244.713,465.954 243.367,465.318C243.367,465.318 240.639,463.439 236.269,460.963C231.898,458.486 228.193,458.145 228.193,458.145C226.847,457.509 226.463,455.991 227.336,454.757ZM221.664,454.757C220.791,453.524 218.991,453.038 217.645,453.674C217.645,453.674 213.352,454.843 210.058,456.261C206.764,457.679 202.471,460.848 202.471,460.848C201.125,461.484 200.741,463.002 201.614,464.235C202.486,465.469 204.287,465.954 205.633,465.318C205.633,465.318 208.361,463.439 212.731,460.963C217.102,458.486 220.807,458.145 220.807,458.145C222.153,457.509 222.537,455.991 221.664,454.757ZM241,454L234,451C234,451 240,441 240,434C240,427 232,422 232,422C232,422 247,425 247,435C247,445 241,454 241,454ZM208,454L215,451C215,451 209,441 209,434C209,427 217,422 217,422C217,422 202,425 202,435C202,445 208,454 208,454Z"
   style="fill:rgb(181,181,181);"
   id="path5424" />
                </g>
            </g>
        </g>
    </g></svg>

<?xml version="1.0" encoding="UTF-8" standalone="no"?>
<svg
   width="100%"
   height="100%"
   viewBox="0 0 64 64"
   version="1.1"
   xml:space="preserve"
   style="fill-rule:evenodd;clip-rule:evenodd;stroke-linejoin:round;stroke-miterlimit:2;"
   id="svg4930"
   sodipodi:docname="Dual_Blades_Rank_01.svg"
   inkscape:version="1.2.2 (732a01da63, 2022-12-09)"
   xmlns:inkscape="http://www.inkscape.org/namespaces/inkscape"
   xmlns:sodipodi="http://sodipodi.sourceforge.net/DTD/sodipodi-0.dtd"
   xmlns="http://www.w3.org/2000/svg"
   xmlns:svg="http://www.w3.org/2000/svg"><defs
   id="defs4934">
        
    
            
        
                
                
                
            
                    
                
                    
                
                    
                </defs><sodipodi:namedview
   id="namedview4932"
   pagecolor="#505050"
   bordercolor="#eeeeee"
   borderopacity="1"
   inkscape:showpageshadow="0"
   inkscape:pageopacity="0"
   inkscape:pagecheckerboard="0"
   inkscape:deskcolor="#505050"
   showgrid="false"
   inkscape:zoom="16.046875"
   inkscape:cx="32"
   inkscape:cy="31.968841"
   inkscape:window-width="3440"
   inkscape:window-height="1377"
   inkscape:window-x="-8"
   inkscape:window-y="-8"
   inkscape:window-maximized="1"
   inkscape:current-layer="svg4930" />
    <path
   id="path4916"
   style="fill-opacity:0.75;fill:none;stroke:#000000;stroke-opacity:1;stroke-width:4;stroke-dasharray:none"
   d="M 25 6 C 25 6 10 9.00001 10 19 C 10 28.99999 16 38 16 38 L 16 41.294922 C 13.216053 42.831891 10.470703 44.847656 10.470703 44.847656 C 9.1247045 45.483656 8.7402821 47.001376 9.6132812 48.234375 C 10.48528 49.468374 12.286814 49.954359 13.632812 49.318359 C 13.632812 49.318359 14.991388 48.39514 17.210938 47.039062 L 20.84375 50.152344 C 21.098933 50.998039 21.496532 51.914343 21.738281 52.603516 C 21.908281 53.086515 22.048156 53.760266 22.160156 54.447266 C 22.055156 54.779265 22 55.134 22 55.5 C 22 56.158999 22.183 56.775735 22.5 57.302734 C 23.112999 58.318733 24.227001 59 25.5 59 C 27.431998 59 29 57.431998 29 55.5 C 29 54.841001 28.817 54.224265 28.5 53.697266 C 28.008 52.880266 27.191515 52.280172 26.228516 52.076172 C 25.660516 51.645172 25.100031 51.195359 24.707031 50.818359 C 24.184362 50.317673 23.590326 49.583685 23 48.972656 L 23 43.841797 C 26.303869 42.395879 28.806641 42.144531 28.806641 42.144531 C 30.152639 41.508532 30.537062 39.991811 29.664062 38.757812 C 28.791063 37.524814 26.99053 37.037829 25.644531 37.673828 C 25.644531 37.673828 25.370987 37.751941 25.117188 37.824219 L 23 35 C 23 35 17 24.999993 17 18 C 17 11.000007 25 6 25 6 z M 40 6 C 40 6 48 11.000007 48 18 C 48 24.999993 42 35 42 35 L 39.882812 37.824219 C 39.629013 37.751941 39.355469 37.673828 39.355469 37.673828 C 38.00947 37.037829 36.208937 37.524814 35.335938 38.757812 C 34.462938 39.991811 34.847361 41.508532 36.193359 42.144531 C 36.193359 42.144531 38.696131 42.395879 42 43.841797 L 42 48.972656 C 41.409674 49.583685 40.815638 50.317673 40.292969 50.818359 C 39.899969 51.195359 39.339484 51.645172 38.771484 52.076172 C 37.808485 52.280172 36.992 52.880266 36.5 53.697266 C 36.183 54.224265 36 54.841001 36 55.5 C 36 57.431998 37.568002 59 39.5 59 C 40.772999 59 41.887001 58.318733 42.5 57.302734 C 42.817 56.775735 43 56.158999 43 55.5 C 43 55.134 42.944844 54.779265 42.839844 54.447266 C 42.951844 53.760266 43.091719 53.086515 43.261719 52.603516 C 43.503468 51.914343 43.901067 50.998039 44.15625 50.152344 L 47.789062 47.039062 C 50.008612 48.39514 51.367188 49.318359 51.367188 49.318359 C 52.713186 49.954359 54.51472 49.468374 55.386719 48.234375 C 56.259718 47.001376 55.875296 45.483656 54.529297 44.847656 C 54.529297 44.847656 51.783947 42.831891 49 41.294922 L 49 38 C 49 38 55 28.99999 55 19 C 55 9.00001 40 6 40 6 z " />
<g
   transform="matrix(1,0,0,1,0,-192)"
   id="g5432">
        <g
   transform="matrix(1,0,0,1,0,-544)"
   id="g5430">
            <g
   id="g5428"
   transform="matrix(1,0,0,1,-192,-224)">
                <g
   id="g5418"
   transform="matrix(1,0,0,1,0,544)">
                    <path
   d="M241,454L241,462L234,468L234,455L231,455L234,451L241,454ZM208,454L208,462L215,468L215,455L218,455L215,451L208,454Z"
   style="fill-opacity:1;fill:#1f1f1f"
   id="path5416" />
                </g>
                <g
   id="g5422"
   transform="matrix(1,0,0,1,0,544)">
                    <path
   d="M234.839,470.448C234.951,469.761 235.091,469.087 235.261,468.604C235.777,467.133 237.028,464.613 236.007,464C234.985,463.386 233.457,465.703 232.292,466.819C231.899,467.196 231.34,467.645 230.772,468.076C229.809,468.28 228.992,468.88 228.5,469.697L228.5,469.697L228.5,469.697C228.183,470.224 228,470.841 228,471.5C228,473.432 229.568,475 231.5,475C232.773,475 233.887,474.319 234.5,473.303L234.5,473.303L234.5,473.303C234.817,472.776 235,472.159 235,471.5C235,471.134 234.944,470.78 234.839,470.448ZM214.161,470.448C214.049,469.761 213.909,469.087 213.739,468.604C213.223,467.133 211.972,464.613 212.993,464C214.015,463.386 215.543,465.703 216.708,466.819C217.101,467.196 217.66,467.645 218.228,468.076C219.191,468.28 220.008,468.88 220.5,469.697L220.5,469.697L220.5,469.697C220.817,470.224 221,470.841 221,471.5C221,473.432 219.432,475 217.5,475C216.227,475 215.113,474.319 214.5,473.303L214.5,473.303L214.5,473.303C214.183,472.776 214,472.159 214,471.5C214,471.134 214.056,470.78 214.161,470.448Z"
   style="fill:rgb(61,61,61);"
   id="path5420" />
                </g>
                <g
   id="g5426"
   transform="matrix(1,0,0,1,0,544)">
                    <path
   d="M227.336,454.757C228.209,453.524 230.009,453.038 231.355,453.674C231.355,453.674 235.648,454.843 238.942,456.261C242.236,457.679 246.529,460.848 246.529,460.848C247.875,461.484 248.259,463.002 247.386,464.235C246.514,465.469 244.713,465.954 243.367,465.318C243.367,465.318 240.639,463.439 236.269,460.963C231.898,458.486 228.193,458.145 228.193,458.145C226.847,457.509 226.463,455.991 227.336,454.757ZM221.664,454.757C220.791,453.524 218.991,453.038 217.645,453.674C217.645,453.674 213.352,454.843 210.058,456.261C206.764,457.679 202.471,460.848 202.471,460.848C201.125,461.484 200.741,463.002 201.614,464.235C202.486,465.469 204.287,465.954 205.633,465.318C205.633,465.318 208.361,463.439 212.731,460.963C217.102,458.486 220.807,458.145 220.807,458.145C222.153,457.509 222.537,455.991 221.664,454.757ZM241,454L234,451C234,451 240,441 240,434C240,427 232,422 232,422C232,422 247,425 247,435C247,445 241,454 241,454ZM208,454L215,451C215,451 209,441 209,434C209,427 217,422 217,422C217,422 202,425 202,435C202,445 208,454 208,454Z"
   style="fill:rgb(181,181,181);"
   id="path5424" />
                </g>
            </g>
        </g>
    </g></svg>
